X: 100271
T: JOHNSTON'S HORNPIPE
R: hornpipe, reel
B: K\"ohler's Violin Repository, v.3, 1885 p.203 #1
F: http://www.archive.org/details/klersviolinrepos03rugg
Z: 2012 John Chambers <jc:trillian.mit.edu>
M: C|
L: 1/8
K: D
((3uABc) |\
(dc)de (fd)AF | (GF)GA BGE2 | efg2 (cd)ec | (de)fd A2((3uABc) |
(dc)de (fd)AF | (GF)GA BGE2 | efg2 (cd)ed | (cA)Bc d2 :|
|: ue2 |\
(fe)fg afd2 | (gf)ga bge2 | (fg)af (de)fd | (ca)Be A2(ugf) |
(fe)fg afd2 | (gf)ga bg ((3efg) | (af)ge (fd)ec | (Ag)fe d2 :|

%%sep 2 1 500

